X:15
T:Maid Of Saragossa. CAM2.[15]
B:Anon MS#2, early 19thC, Northumbria, Cocks Coll.
Z:Village Music Project 2016 Steve Mansfield
M:3/4
L:1/8
Q:3/4=60
N:* Time signature changes added by transcriber to fit notation in Mss
N: ** B A2 FA FA  in Mss
K:D
A2 | f3cdc | BAFAFA | AGEGEG | BAFAFA |
f2 gcdB | BAFAFA | AG F2c2 | d4 :|
[M:4/4]
|: "*" A2 | A2 G2 EG EG | "**" B2A2 FA FA | A2G2 EGEG | B2A2 FAFA |
[M:3/4] f3 cdB | [M:4/4] B2A2 FAFA | BG E3c | d4 :|
[M:3/4] d2 | c3 Ace | f3 Adf | e2 dfga | ba gfed |
c2 cAce | d2 dBdf | cegece | d4 |]

